deepin/places/network-workgroup.svg

<?xml version="1.0" encoding="UTF-8" standalone="no"?>
<!-- Created with Inkscape (http://www.inkscape.org/) -->

<svg
   xmlns:dc="http://purl.org/dc/elements/1.1/"
   xmlns:cc="http://creativecommons.org/ns#"
   xmlns:rdf="http://www.w3.org/1999/02/22-rdf-syntax-ns#"
   xmlns:svg="http://www.w3.org/2000/svg"
   xmlns="http://www.w3.org/2000/svg"
   xmlns:inkscape="http://www.inkscape.org/namespaces/inkscape"
   version="1.1"
   width="48"
   height="48"
   viewBox="0 0 48 48"
   id="svg2">
  <title
     id="title4">network-workgroup</title>
  <desc
     id="desc6">Created with Sketch.</desc>
  <metadata
     id="metadata40">
    <rdf:RDF>
      <cc:Work
         rdf:about="">
        <dc:format>image/svg+xml</dc:format>
        <dc:type
           rdf:resource="http://purl.org/dc/dcmitype/StillImage" />
      </cc:Work>
    </rdf:RDF>
  </metadata>
  <defs
     id="defs8">
    <filter
       filterUnits="objectBoundingBox"
       x="-0.5"
       y="-0.5"
       width="2"
       height="2"
       color-interpolation-filters="sRGB"
       id="filter-1">
      <feOffset
         dx="0"
         dy="1"
         in="SourceAlpha"
         result="shadowOffsetOuter1"
         id="feOffset11" />
      <feGaussianBlur
         stdDeviation="1"
         in="shadowOffsetOuter1"
         result="shadowBlurOuter1"
         id="feGaussianBlur13" />
      <feColorMatrix
         values="0 0 0 0 0   0 0 0 0 0   0 0 0 0 0  0 0 0 0.21 0"
         in="shadowBlurOuter1"
         type="matrix"
         result="shadowMatrixOuter1"
         id="feColorMatrix15" />
      <feMerge
         id="feMerge17">
        <feMergeNode
           in="shadowMatrixOuter1"
           id="feMergeNode19" />
        <feMergeNode
           in="SourceGraphic"
           id="feMergeNode21" />
      </feMerge>
    </filter>
    <linearGradient
       x1="0.5"
       y1="0"
       x2="0.5"
       y2="1"
       id="linearGradient-2">
      <stop
         id="stop24"
         style="stop-color:#8ec5ff;stop-opacity:1"
         offset="0" />
      <stop
         id="stop26"
         style="stop-color:#70bcff;stop-opacity:1"
         offset="0.97000003" />
      <stop
         id="stop28"
         style="stop-color:#0f70e6;stop-opacity:1"
         offset="1" />
    </linearGradient>
  </defs>
  <g
     id="Page-1"
     style="fill:none;stroke:none">
    <g
       id="network-workgroup">
      <g
         transform="translate(4,5)"
         id="Group">
        <path
           d="M 2,6 2,2 24.172,2 26.237,0 38,0 38,6 40,6 40,36 0,36 0,6 2,6 z"
           inkscape:connector-curvature="0"
           id="Shape-4"
           style="fill:#31a4fc;filter:url(#filter-1)" />
        <path
           d="M 38,30 2,30 2,2 24.172,2 26.237,0 38,0 38,30 z"
           inkscape:connector-curvature="0"
           id="Shape"
           style="fill:#31a4fc" />
        <rect
           width="40"
           height="30"
           x="0"
           y="6"
           id="Rectangle-path"
           style="fill:url(#linearGradient-2)" />
      </g>
      <path
         d="m 31.002,25.548 c 0,-1.069 -0.933,-2.011 -2.426,-2.641 0.2,-1.607 -0.149,-2.886 -1.075,-3.421 -0.294,-0.17 -0.63,-0.256 -0.998,-0.256 -0.767,0 -1.635,0.372 -2.502,1.03 -0.867,-0.658 -1.736,-1.03 -2.502,-1.03 -0.368,0 -0.704,0.086 -0.998,0.256 -0.926,0.535 -1.274,1.813 -1.074,3.421 -1.492,0.631 -2.426,1.572 -2.426,2.641 0,1.069 0.932,2.01 2.424,2.641 -0.013,0.099 -0.023,0.196 -0.032,0.293 -0.133,1.528 0.26,2.639 1.107,3.128 0.294,0.17 0.63,0.256 0.998,0.256 0.767,0 1.635,-0.372 2.502,-1.03 0.867,0.658 1.735,1.03 2.502,1.03 0.368,0 0.704,-0.086 0.998,-0.256 0.848,-0.489 1.241,-1.6 1.108,-3.129 -0.008,-0.097 -0.019,-0.194 -0.032,-0.293 1.494,-0.63 2.426,-1.571 2.426,-2.64 l 0,0 z m -4.498,-5.576 c 0.236,0 0.447,0.053 0.627,0.156 0.584,0.337 0.857,1.26 0.734,2.515 -0.587,-0.189 -1.238,-0.335 -1.936,-0.431 -0.429,-0.554 -0.879,-1.044 -1.337,-1.46 0.685,-0.496 1.35,-0.78 1.912,-0.78 l 0,0 z M 26.36,26.91 c -0.261,0.452 -0.543,0.881 -0.84,1.279 -0.479,0.053 -0.986,0.082 -1.518,0.082 -0.533,0 -1.039,-0.029 -1.519,-0.082 -0.296,-0.399 -0.579,-0.828 -0.84,-1.279 -0.267,-0.462 -0.495,-0.917 -0.69,-1.36 0.199,-0.455 0.429,-0.912 0.69,-1.364 0.261,-0.452 0.543,-0.881 0.84,-1.279 0.479,-0.053 0.986,-0.082 1.518,-0.082 0.533,0 1.039,0.029 1.518,0.082 0.296,0.399 0.579,0.828 0.84,1.279 0.261,0.452 0.491,0.909 0.69,1.364 -0.193,0.443 -0.422,0.897 -0.689,1.36 l 0,0 z m 1.059,-0.406 c 0.14,0.413 0.25,0.819 0.329,1.212 -0.37,0.125 -0.775,0.233 -1.213,0.32 0.16,-0.243 0.316,-0.495 0.466,-0.755 0.151,-0.26 0.289,-0.519 0.418,-0.777 l 0,0 z m -3.417,3.364 c -0.294,-0.261 -0.588,-0.556 -0.875,-0.882 0.286,0.017 0.578,0.027 0.875,0.027 0.297,0 0.588,-0.01 0.875,-0.027 -0.287,0.326 -0.581,0.621 -0.875,0.882 l 0,0 z m -2.534,-1.833 c -0.438,-0.087 -0.843,-0.195 -1.213,-0.32 0.079,-0.393 0.19,-0.799 0.329,-1.212 0.129,0.258 0.268,0.518 0.417,0.777 0.151,0.26 0.307,0.512 0.467,0.755 l 0,0 z m -0.886,-3.436 c -0.145,-0.425 -0.254,-0.831 -0.331,-1.216 0.372,-0.125 0.778,-0.234 1.217,-0.321 -0.16,0.243 -0.316,0.495 -0.466,0.755 -0.15,0.258 -0.289,0.52 -0.42,0.782 l 0,0 z m 3.42,-3.37 c 0.294,0.261 0.588,0.556 0.875,0.882 -0.286,-0.017 -0.578,-0.027 -0.875,-0.027 -0.297,0 -0.588,0.01 -0.875,0.027 0.287,-0.326 0.581,-0.621 0.875,-0.882 l 0,0 z m 3,2.587 c -0.15,-0.26 -0.306,-0.512 -0.466,-0.755 0.439,0.087 0.846,0.196 1.217,0.321 -0.077,0.385 -0.187,0.792 -0.331,1.216 -0.131,-0.261 -0.27,-0.523 -0.42,-0.782 l 0,0 z m -6.129,-3.688 c 0.18,-0.104 0.391,-0.156 0.627,-0.156 0.562,0 1.227,0.284 1.912,0.781 -0.458,0.416 -0.908,0.907 -1.337,1.46 -0.698,0.095 -1.349,0.242 -1.936,0.431 -0.123,-1.256 0.15,-2.178 0.734,-2.516 l 0,0 z m -3.13,5.42 c 0,-0.674 0.663,-1.373 1.812,-1.893 0.13,0.604 0.329,1.241 0.596,1.894 -0.262,0.643 -0.463,1.281 -0.595,1.893 -1.15,-0.521 -1.813,-1.219 -1.813,-1.894 l 0,0 z m 3.757,5.577 c -0.236,0 -0.447,-0.053 -0.628,-0.157 -0.575,-0.332 -0.845,-1.215 -0.74,-2.422 0.003,-0.031 0.007,-0.062 0.01,-0.092 0.586,0.189 1.236,0.334 1.932,0.43 0.429,0.554 0.879,1.045 1.337,1.461 -0.684,0.496 -1.348,0.78 -1.911,0.78 l 0,0 z m 6.371,-2.579 c 0.105,1.207 -0.164,2.09 -0.74,2.422 -0.18,0.104 -0.391,0.157 -0.627,0.157 -0.562,0 -1.227,-0.284 -1.912,-0.781 0.457,-0.416 0.908,-0.907 1.337,-1.461 0.696,-0.095 1.346,-0.241 1.932,-0.43 0.003,0.032 0.007,0.063 0.01,0.093 l 0,0 z m 0.578,-1.104 c -0.132,-0.612 -0.333,-1.25 -0.595,-1.893 0.267,-0.653 0.466,-1.29 0.596,-1.894 1.149,0.521 1.812,1.219 1.812,1.893 -0.001,0.675 -0.664,1.373 -1.813,1.894 l 0,0 z"
         inkscape:connector-curvature="0"
         id="path36"
         style="fill:#ffffff" />
    </g>
  </g>
</svg>

<?xml version="1.0" encoding="UTF-8" standalone="no"?>
<svg width="48px" height="48px" viewBox="0 0 48 48" version="1.1" xmlns="http://www.w3.org/2000/svg" xmlns:xlink="http://www.w3.org/1999/xlink" xmlns:sketch="http://www.bohemiancoding.com/sketch/ns">
    <!-- Generator: Sketch 3.1.1 (8761) - http://www.bohemiancoding.com/sketch -->
    <title>network-workgroup</title>
    <desc>Created with Sketch.</desc>
    <defs>
        <filter x="-50%" y="-50%" width="200%" height="200%" filterUnits="objectBoundingBox" id="filter-1">
            <feOffset dx="0" dy="1" in="SourceAlpha" result="shadowOffsetOuter1"></feOffset>
            <feGaussianBlur stdDeviation="1" in="shadowOffsetOuter1" result="shadowBlurOuter1"></feGaussianBlur>
            <feColorMatrix values="0 0 0 0 0   0 0 0 0 0   0 0 0 0 0  0 0 0 0.21 0" in="shadowBlurOuter1" type="matrix" result="shadowMatrixOuter1"></feColorMatrix>
            <feMerge>
                <feMergeNode in="shadowMatrixOuter1"></feMergeNode>
                <feMergeNode in="SourceGraphic"></feMergeNode>
            </feMerge>
        </filter>
        <linearGradient x1="50%" y1="0%" x2="50%" y2="100%" id="linearGradient-2">
            <stop stop-color="#8EC5FF" offset="0%"></stop>
            <stop stop-color="#70BCFF" offset="97%"></stop>
            <stop stop-color="#0F70E6" offset="100%"></stop>
        </linearGradient>
    </defs>
    <g id="Page-1" stroke="none" stroke-width="1" fill="none" fill-rule="evenodd" sketch:type="MSPage">
        <g id="network-workgroup" sketch:type="MSArtboardGroup">
            <g id="Group" sketch:type="MSLayerGroup" transform="translate(4.000000, 5.000000)">
                <path d="M2,6 L2,2 L24.172,2 L26.237,0 L38,0 L38,6 L40,6 L40,36 L0,36 L0,6 L2,6 Z" id="Shape-4" fill="#31A4FC" filter="url(#filter-1)" sketch:type="MSShapeGroup"></path>
                <path d="M38,30 L2,30 L2,2 L24.172,2 L26.237,0 L38,0 L38,30 Z" id="Shape" fill="#31A4FC" sketch:type="MSShapeGroup"></path>
                <rect id="Rectangle-path" fill="url(#linearGradient-2)" sketch:type="MSShapeGroup" x="0" y="6" width="40" height="30"></rect>
            </g>
            <path d="M31.002,25.548 C31.002,24.479 30.069,23.537 28.576,22.907 C28.776,21.3 28.427,20.021 27.501,19.486 C27.207,19.316 26.871,19.23 26.503,19.23 C25.736,19.23 24.868,19.602 24.001,20.26 C23.134,19.602 22.265,19.23 21.499,19.23 C21.131,19.23 20.795,19.316 20.501,19.486 C19.575,20.021 19.227,21.299 19.427,22.907 C17.935,23.538 17.001,24.479 17.001,25.548 C17.001,26.617 17.933,27.558 19.425,28.189 C19.412,28.288 19.402,28.385 19.393,28.482 C19.26,30.01 19.653,31.121 20.5,31.61 C20.794,31.78 21.13,31.866 21.498,31.866 C22.265,31.866 23.133,31.494 24,30.836 C24.867,31.494 25.735,31.866 26.502,31.866 C26.87,31.866 27.206,31.78 27.5,31.61 C28.348,31.121 28.741,30.01 28.608,28.481 C28.6,28.384 28.589,28.287 28.576,28.188 C30.07,27.558 31.002,26.617 31.002,25.548 L31.002,25.548 Z M26.504,19.972 C26.74,19.972 26.951,20.025 27.131,20.128 C27.715,20.465 27.988,21.388 27.865,22.643 C27.278,22.454 26.627,22.308 25.929,22.212 C25.5,21.658 25.05,21.168 24.592,20.752 C25.277,20.256 25.942,19.972 26.504,19.972 L26.504,19.972 Z M26.36,26.91 C26.099,27.362 25.817,27.791 25.52,28.189 C25.041,28.242 24.534,28.271 24.002,28.271 C23.469,28.271 22.963,28.242 22.483,28.189 C22.187,27.79 21.904,27.361 21.643,26.91 C21.376,26.448 21.148,25.993 20.953,25.55 C21.152,25.095 21.382,24.638 21.643,24.186 C21.904,23.734 22.186,23.305 22.483,22.907 C22.962,22.854 23.469,22.825 24.001,22.825 C24.534,22.825 25.04,22.854 25.519,22.907 C25.815,23.306 26.098,23.735 26.359,24.186 C26.62,24.638 26.85,25.095 27.049,25.55 C26.856,25.993 26.627,26.447 26.36,26.91 L26.36,26.91 Z M27.419,26.504 C27.559,26.917 27.669,27.323 27.748,27.716 C27.378,27.841 26.973,27.949 26.535,28.036 C26.695,27.793 26.851,27.541 27.001,27.281 C27.152,27.021 27.29,26.762 27.419,26.504 L27.419,26.504 Z M24.002,29.868 C23.708,29.607 23.414,29.312 23.127,28.986 C23.413,29.003 23.705,29.013 24.002,29.013 C24.299,29.013 24.59,29.003 24.877,28.986 C24.59,29.312 24.296,29.607 24.002,29.868 L24.002,29.868 Z M21.468,28.035 C21.03,27.948 20.625,27.84 20.255,27.715 C20.334,27.322 20.445,26.916 20.584,26.503 C20.713,26.761 20.852,27.021 21.001,27.28 C21.152,27.54 21.308,27.792 21.468,28.035 L21.468,28.035 Z M20.582,24.599 C20.437,24.174 20.328,23.768 20.251,23.383 C20.623,23.258 21.029,23.149 21.468,23.062 C21.308,23.305 21.152,23.557 21.002,23.817 C20.852,24.075 20.713,24.337 20.582,24.599 L20.582,24.599 Z M24.002,21.229 C24.296,21.49 24.59,21.785 24.877,22.111 C24.591,22.094 24.299,22.084 24.002,22.084 C23.705,22.084 23.414,22.094 23.127,22.111 C23.414,21.785 23.708,21.49 24.002,21.229 L24.002,21.229 Z M27.002,23.816 C26.852,23.556 26.696,23.304 26.536,23.061 C26.975,23.148 27.382,23.257 27.753,23.382 C27.676,23.767 27.566,24.174 27.422,24.598 C27.291,24.337 27.152,24.075 27.002,23.816 L27.002,23.816 Z M20.873,20.128 C21.053,20.024 21.264,19.972 21.5,19.972 C22.062,19.972 22.727,20.256 23.412,20.753 C22.954,21.169 22.504,21.66 22.075,22.213 C21.377,22.308 20.726,22.455 20.139,22.644 C20.016,21.388 20.289,20.466 20.873,20.128 L20.873,20.128 Z M17.743,25.548 C17.743,24.874 18.406,24.175 19.555,23.655 C19.685,24.259 19.884,24.896 20.151,25.549 C19.889,26.192 19.688,26.83 19.556,27.442 C18.406,26.921 17.743,26.223 17.743,25.548 L17.743,25.548 Z M21.5,31.125 C21.264,31.125 21.053,31.072 20.872,30.968 C20.297,30.636 20.027,29.753 20.132,28.546 C20.135,28.515 20.139,28.484 20.142,28.454 C20.728,28.643 21.378,28.788 22.074,28.884 C22.503,29.438 22.953,29.929 23.411,30.345 C22.727,30.841 22.063,31.125 21.5,31.125 L21.5,31.125 Z M27.871,28.546 C27.976,29.753 27.707,30.636 27.131,30.968 C26.951,31.072 26.74,31.125 26.504,31.125 C25.942,31.125 25.277,30.841 24.592,30.344 C25.049,29.928 25.5,29.437 25.929,28.883 C26.625,28.788 27.275,28.642 27.861,28.453 C27.864,28.485 27.868,28.516 27.871,28.546 L27.871,28.546 Z M28.449,27.442 C28.317,26.83 28.116,26.192 27.854,25.549 C28.121,24.896 28.32,24.259 28.45,23.655 C29.599,24.176 30.262,24.874 30.262,25.548 C30.261,26.223 29.598,26.921 28.449,27.442 L28.449,27.442 Z" id="Shape" fill="#FFFFFF" sketch:type="MSShapeGroup"></path>
        </g>
    </g>
</svg>
